!!!!SEGMENT: pl-sa--l-1643--103_anonim--kyrie-eleison.krn
!!!cenid: 16xx:1461
!!!COM: Anonim
!!!COM-rismid: pe30004985
!!!CDT:
!!!CNT:
!!!OTL: Kyrie eleison
!!!PDT:
!!!AGN: Sacred
!!!SMS-siglum: PL-SA
!!!SMS-shelfmark: L 1643
!!!SMS-shelfwork: 103 W
!!!SMS-variant:
!!!SMS-altvar:
!!!NIFC-rismid: 1001064399
!!!URL-scan: http://repozytorium.nifc.pl/skany/pl-sa-nut--l1643
!!!ONB-nifc: UWAGA: 8 ksiąg. Primi chori: 1mus Cantus (x), C 2dus (182-186), C 3tius (x), Bassus (x); Secondi chori: Primus Cantus (x), C 2dus (x), Altus (x), Bassus (x). UWAGA: Nie dodawać pustych linii, chyba że w rękopisie pojawiają się dodatkowe oznaczenia dotyczące pełnej obsady (a 4, a 8 itp.)
**kern	**text	**text	**text	**text	**text	**text	**text
*I"Cantus 2dus Primi Chori.	*	*	*	*	*	*	*
*I'Coro 1 S 2	*	*	*	*	*	*	*
*clefC1	*	*	*	*	*	*	*
*k[b-]	*	*	*	*	*	*	*
*g:	*	*	*	*	*	*	*
*M2/2	*	*	*	*	*	*	*
*met(c|)	*	*	*	*	*	*	*
=1-	=1-	=1-	=1-	=1-	=1-	=1-	=1-
1.b-\	Ki-	.	.	.	.	.	.
=2-	=2-	=2-	=2-	=2-	=2-	=2-	=2-
2b-\	-ri-	.	.	.	.	.	.
=3-	=3-	=3-	=3-	=3-	=3-	=3-	=3-
1cc\	-e	.	.	.	.	.	.
=4-	=4-	=4-	=4-	=4-	=4-	=4-	=4-
2.b-\	e-	.	.	.	.	.	.
4cc\	.	.	.	.	.	.	.
=5-	=5-	=5-	=5-	=5-	=5-	=5-	=5-
1.dd\	.	.	.	.	.	.	.
=6-	=6-	=6-	=6-	=6-	=6-	=6-	=6-
2dd\	-leÿ-	.	.	.	.	.	.
=7-	=7-	=7-	=7-	=7-	=7-	=7-	=7-
2b-,\	-ſon	.	.	.	.	.	.
2dd\	Chriſ-	.	.	.	.	.	.
=8-	=8-	=8-	=8-	=8-	=8-	=8-	=8-
2cc\	-te	.	.	.	.	.	.
1cc\	e-	.	.	.	.	.	.
=9-	=9-	=9-	=9-	=9-	=9-	=9-	=9-
!LO:N:acc=#	!	!	!	!	!	!	!
!LO:TX:b:t=P:problem:# below	!	!	!	!	!	!	!
2bn\	-leÿ-	.	.	.	.	.	.
=10-	=10-	=10-	=10-	=10-	=10-	=10-	=10-
1cc\	-ſon	.	.	.	.	.	.
=11-	=11-	=11-	=11-	=11-	=11-	=11-	=11-
2r	.	.	.	.	.	.	.
2dd\	Chrÿſ-	.	.	.	.	.	.
=12-	=12-	=12-	=12-	=12-	=12-	=12-	=12-
2cc\	-te	.	.	.	.	.	.
1cc\	e-	.	.	.	.	.	.
=13-	=13-	=13-	=13-	=13-	=13-	=13-	=13-
2bn\	-leÿ-	.	.	.	.	.	.
=14-	=14-	=14-	=14-	=14-	=14-	=14-	=14-
2cc\	-ſon	.	.	.	.	.	.
2.cc\	e-	.	.	.	.	.	.
=15-	=15-	=15-	=15-	=15-	=15-	=15-	=15-
8b-\L	-leÿ-	son	.	.	.	.	.
!LO:SIC:o:v=custos b	!	!	!	!	!	!	!
!LO:LB:g=original	!	!	!	!	!	!	!
8a\J	.	.	.	.	.	.	.
!LO:TX:b:t=P:problem:# below	!	!	!	!	!	!	!
!LO:N:acc=#	!	!	!	!	!	!	!
2bn\	-ſon,	.	.	.	.	.	.
=16-	=16-	=16-	=16-	=16-	=16-	=16-	=16-
0cc\	Ki-	.	.	.	.	.	.
=17-	=17-	=17-	=17-	=17-	=17-	=17-	=17-
=18-	=18-	=18-	=18-	=18-	=18-	=18-	=18-
2.b-\	-ri-	.	.	.	.	.	.
4cc\	.	.	.	.	.	.	.
=19-	=19-	=19-	=19-	=19-	=19-	=19-	=19-
2.dd\	-e	.	.	.	.	.	.
8cc\L	.	.	.	.	.	.	.
8b-\J	.	.	.	.	.	.	.
=20-	=20-	=20-	=20-	=20-	=20-	=20-	=20-
2.a\	e-	.	.	.	.	.	.
4b-\	.	.	.	.	.	.	.
=21-	=21-	=21-	=21-	=21-	=21-	=21-	=21-
2.cc\	.	.	.	.	.	.	.
8b-\L	.	.	.	.	.	.	.
8a\J	.	.	.	.	.	.	.
=22-	=22-	=22-	=22-	=22-	=22-	=22-	=22-
2.g/	.	.	.	.	.	.	.
4a\	.	.	.	.	.	.	.
=23-	=23-	=23-	=23-	=23-	=23-	=23-	=23-
4dd\	.	.	.	.	.	.	.
4cc\	.	.	.	.	.	.	.
4b-\	.	.	.	.	.	.	.
4dd\	.	.	.	.	.	.	.
=24-	=24-	=24-	=24-	=24-	=24-	=24-	=24-
2cc\	.	.	.	.	.	.	.
4b-\	.	.	.	.	.	.	.
4cc\	.	.	.	.	.	.	.
=25-	=25-	=25-	=25-	=25-	=25-	=25-	=25-
1dd\	-leÿ-	.	.	.	.	.	.
=26-	=26-	=26-	=26-	=26-	=26-	=26-	=26-
!LO:SIC:o:v=custos dd	!	!	!	!	!	!	!
!LO:LB:g=original	!	!	!	!	!	!	!
1dd\	-ſon	.	.	.	.	.	.
=27-	=27-	=27-	=27-	=27-	=27-	=27-	=27-
1r	.	.	.	.	.	.	.
=28-	=28-	=28-	=28-	=28-	=28-	=28-	=28-
1r	.	.	.	.	.	.	.
=29-	=29-	=29-	=29-	=29-	=29-	=29-	=29-
1r	.	.	.	.	.	.	.
=30-	=30-	=30-	=30-	=30-	=30-	=30-	=30-
1r	.	.	.	.	.	.	.
=31-	=31-	=31-	=31-	=31-	=31-	=31-	=31-
1dd\	Chriſ-	.	.	.	.	.	.
=32-	=32-	=32-	=32-	=32-	=32-	=32-	=32-
2cc\	-te	.	.	.	.	.	.
2dd\	e-	.	.	.	.	.	.
=33-	=33-	=33-	=33-	=33-	=33-	=33-	=33-
2dd\	-xau-	.	.	.	.	.	.
2dd\	-di	.	.	.	.	.	.
=34-	=34-	=34-	=34-	=34-	=34-	=34-	=34-
!LO:SIC:o:v:t=kreska pseudotaktowa	!	!	!	!	!	!	!
1dd\;	nos,	.	.	.	.	.	.
=35-	=35-	=35-	=35-	=35-	=35-	=35-	=35-
!LO:SIC:o:v:t=fragment słabo widoczny	!	!	!	!	!	!	!
1cc\	Pa-	.	.	.	.	.	.
=36-	=36-	=36-	=36-	=36-	=36-	=36-	=36-
2cc\	-ter	.	.	.	.	.	.
2dd\	de	.	.	.	.	.	.
=37-	=37-	=37-	=37-	=37-	=37-	=37-	=37-
2b-\	cae-	.	.	.	.	.	.
2b-\	-lis	.	.	.	.	.	.
=38-	=38-	=38-	=38-	=38-	=38-	=38-	=38-
1cc\	de-	.	.	.	.	.	.
=39-	=39-	=39-	=39-	=39-	=39-	=39-	=39-
2dd,\	-us,	.	.	.	.	.	.
1b-\	.	.	.	.	.	.	.
=40-	=40-	=40-	=40-	=40-	=40-	=40-	=40-
2b-\	Mi-	.	.	.	.	.	.
=41-	=41-	=41-	=41-	=41-	=41-	=41-	=41-
2b-\	-ſe-	.	.	.	.	.	.
2.b-\	-re-	.	.	.	.	.	.
=42-	=42-	=42-	=42-	=42-	=42-	=42-	=42-
8a\L	-re	.	.	.	.	.	.
8g\J	.	.	.	.	.	.	.
2a\	no-	.	.	.	.	.	.
=43-	=43-	=43-	=43-	=43-	=43-	=43-	=43-
!LO:SIC:o:v=custos dd	!	!	!	!	!	!	!
!LO:LB:g=original	!	!	!	!	!	!	!
1b-\	-bis	.	.	.	.	.	.
=44-	=44-	=44-	=44-	=44-	=44-	=44-	=44-
!LO:TX:a:t=Cho\nrus	!	!	!	!	!	!	!
2dd\	Mi-	.	.	.	.	.	.
2dd\	-ſe-	.	.	.	.	.	.
=45-	=45-	=45-	=45-	=45-	=45-	=45-	=45-
2.cc\	-re-	.	.	.	.	.	.
4b-\	-re	.	.	.	.	.	.
=46-	=46-	=46-	=46-	=46-	=46-	=46-	=46-
1a\	no-	.	.	.	.	.	.
=47-	=47-	=47-	=47-	=47-	=47-	=47-	=47-
!LO:SIC:o:v:t=kreska pseudotaktowa	!	!	!	!	!	!	!
!LO:TX:b:t=P:problem:# below	!	!	!	!	!	!	!
!LO:N:acc=#	!	!	!	!	!	!	!
!LO:LB:g=original	!	!	!	!	!	!	!
1bn\	-bis.	.	.	.	.	.	.
=48-	=48-	=48-	=48-	=48-	=48-	=48-	=48-
1bn\	Spi-	.	.	.	.	.	.
=49-	=49-	=49-	=49-	=49-	=49-	=49-	=49-
2bn\	-ri-	.	.	.	.	.	.
2b,\	-tus	.	.	.	.	.	.
=50-	=50-	=50-	=50-	=50-	=50-	=50-	=50-
2cc\	ſan-	.	.	.	.	.	.
2a\	-cte	.	.	.	.	.	.
=51-	=51-	=51-	=51-	=51-	=51-	=51-	=51-
1g\	de-	.	.	.	.	.	.
=52-	=52-	=52-	=52-	=52-	=52-	=52-	=52-
1a\	-us.	.	.	.	.	.	.
=53-	=53-	=53-	=53-	=53-	=53-	=53-	=53-
1r	.	.	.	.	.	.	.
=54-	=54-	=54-	=54-	=54-	=54-	=54-	=54-
1r	.	.	.	.	.	.	.
=55-	=55-	=55-	=55-	=55-	=55-	=55-	=55-
1r	.	.	.	.	.	.	.
=56-	=56-	=56-	=56-	=56-	=56-	=56-	=56-
1r	.	.	.	.	.	.	.
=57-	=57-	=57-	=57-	=57-	=57-	=57-	=57-
!LO:SIC:o:v:t=brak nut tylko tekst	!	!	!	!	!	!	!
1b-\	San-	.	.	.	.	.	.
=58-	=58-	=58-	=58-	=58-	=58-	=58-	=58-
1b-\	-cta	.	.	.	.	.	.
=59-	=59-	=59-	=59-	=59-	=59-	=59-	=59-
1b-\	tri-	.	.	.	.	.	.
=60-	=60-	=60-	=60-	=60-	=60-	=60-	=60-
1b-\	-ni-	.	.	.	.	.	.
=61-	=61-	=61-	=61-	=61-	=61-	=61-	=61-
1b-\	-tas	.	.	.	.	.	.
=62-	=62-	=62-	=62-	=62-	=62-	=62-	=62-
2a\	v-	.	.	.	.	.	.
2b-\	-nus	.	.	.	.	.	.
=63-	=63-	=63-	=63-	=63-	=63-	=63-	=63-
!LO:N:acc=#	!	!	!	!	!	!	!
!LO:TX:b:t=P:problem:# below	!	!	!	!	!	!	!
!LO:SIC:o:v=custos dd	!	!	!	!	!	!	!
!LO:LB:g=original	!	!	!	!	!	!	!
1cc#X\	de-	.	.	.	.	.	.
=64-	=64-	=64-	=64-	=64-	=64-	=64-	=64-
!LO:SIC:o:v:t=kreska pseudotaktowa	!	!	!	!	!	!	!
1b-\;	-us,	.	.	.	.	.	.
=65-	=65-	=65-	=65-	=65-	=65-	=65-	=65-
2b-\	Mi-	.	.	.	.	.	.
2b-\	-ſe-	.	.	.	.	.	.
=66-	=66-	=66-	=66-	=66-	=66-	=66-	=66-
2g/	-re-	.	.	.	.	.	.
2dd\	-re	.	.	.	.	.	.
=67-	=67-	=67-	=67-	=67-	=67-	=67-	=67-
1dd\	no-	.	.	.	.	.	.
=68-	=68-	=68-	=68-	=68-	=68-	=68-	=68-
!LO:SIC:o:v:t=kreska pseudotaktowa	!	!	!	!	!	!	!
!LO:TX:b:t=P:problem:# below	!	!	!	!	!	!	!
!LO:N:acc=#	!	!	!	!	!	!	!
1bn\	-bis,	.	.	.	.	.	.
=69-	=69-	=69-	=69-	=69-	=69-	=69-	=69-
1dd\	San-	.	.	.	.	.	.
=70-	=70-	=70-	=70-	=70-	=70-	=70-	=70-
2b-\	-cta	.	.	.	.	.	.
2cc\	ma-	.	.	.	.	.	.
=71-	=71-	=71-	=71-	=71-	=71-	=71-	=71-
1dd\	-ri-	.	.	.	.	.	.
=72-	=72-	=72-	=72-	=72-	=72-	=72-	=72-
1dd\	-a,	.	.	.	.	.	.
=73-	=73-	=73-	=73-	=73-	=73-	=73-	=73-
1r	.	.	.	.	.	.	.
=74-	=74-	=74-	=74-	=74-	=74-	=74-	=74-
1r	.	.	.	.	.	.	.
=75-	=75-	=75-	=75-	=75-	=75-	=75-	=75-
1r	.	.	.	.	.	.	.
=76-	=76-	=76-	=76-	=76-	=76-	=76-	=76-
1r	.	.	.	.	.	.	.
=77-	=77-	=77-	=77-	=77-	=77-	=77-	=77-
!LO:SIC:o:v:t=kropki zamiast nut	!	!	!	!	!	!	!
1b-\	San-	.	.	.	.	.	.
=78-	=78-	=78-	=78-	=78-	=78-	=78-	=78-
1b-\	-cte	.	.	.	.	.	.
=79-	=79-	=79-	=79-	=79-	=79-	=79-	=79-
1b-\	Mi-	.	.	.	.	.	.
=80-	=80-	=80-	=80-	=80-	=80-	=80-	=80-
1b-\	-cha-	.	.	.	.	.	.
=81-	=81-	=81-	=81-	=81-	=81-	=81-	=81-
1b-\	-el	.	.	.	.	.	.
=82-	=82-	=82-	=82-	=82-	=82-	=82-	=82-
1b-\	dux	.	.	.	.	.	.
=83-	=83-	=83-	=83-	=83-	=83-	=83-	=83-
1b-\	e-	.	.	.	.	.	.
=84-	=84-	=84-	=84-	=84-	=84-	=84-	=84-
1b-\	-xer-	.	.	.	.	.	.
=85-	=85-	=85-	=85-	=85-	=85-	=85-	=85-
!LO:SIC:o:v:t=tekst "ci" na dolnej linijce	!	!	!	!	!	!	!
!LO:SIC:o:v=custos cc	!	!	!	!	!	!	!
!LO:LB:g=original	!	!	!	!	!	!	!
1b-\	ci-	.	.	.	.	.	.
=86-	=86-	=86-	=86-	=86-	=86-	=86-	=86-
2cc\	-tus	.	.	.	.	.	.
2b-\	cae-	.	.	.	.	.	.
=87-	=87-	=87-	=87-	=87-	=87-	=87-	=87-
1cc\	-leſ-	.	.	.	.	.	.
=88-	=88-	=88-	=88-	=88-	=88-	=88-	=88-
1b-\	-tis	.	.	.	.	.	.
=89-	=89-	=89-	=89-	=89-	=89-	=89-	=89-
1bn\	O-	.	.	.	.	.	.
=90-	=90-	=90-	=90-	=90-	=90-	=90-	=90-
2cc\	-ra	.	.	.	.	.	.
2b-\	pro	.	.	.	.	.	.
=91-	=91-	=91-	=91-	=91-	=91-	=91-	=91-
1a\	no-	.	.	.	.	.	.
=92-	=92-	=92-	=92-	=92-	=92-	=92-	=92-
!LO:TX:a:t=Chorus	!	!	!	!	!	!	!
!LO:N:acc=#	!	!	!	!	!	!	!
!LO:TX:b:t=P:problem:# below	!	!	!	!	!	!	!
1bn\	-bis,	.	.	.	.	.	.
=93-	=93-	=93-	=93-	=93-	=93-	=93-	=93-
1b-\	O-	.	.	.	.	.	.
=94-	=94-	=94-	=94-	=94-	=94-	=94-	=94-
2cc\	-ra	.	.	.	.	.	.
2b-\	pro	.	.	.	.	.	.
=95-	=95-	=95-	=95-	=95-	=95-	=95-	=95-
1dd\	no-	.	.	.	.	.	.
=96-	=96-	=96-	=96-	=96-	=96-	=96-	=96-
!LO:TX:b:t=San	!	!	!	!	!	!	!
!LO:SIC:o:v=custos dd	!	!	!	!	!	!	!
!LO:TX:b:t=P:problem:# below	!	!	!	!	!	!	!
!LO:N:acc=#	!	!	!	!	!	!	!
!LO:PB:g=original	!	!	!	!	!	!	!
1bn\	-bis,	.	.	.	.	.	.
=97-	=97-	=97-	=97-	=97-	=97-	=97-	=97-
!LO:SIC:o:v:t=czasem kilka sylab na jeden dźwięk	!	!	!	!	!	!	!
!LO:SIC:o:v:t=kropki zamiast nut	!	!	!	!	!	!	!
1dd\	San-	San-	S Ra-	S An-	SS An-	SS An-	SS An-
=98-	=98-	=98-	=98-	=98-	=98-	=98-	=98-
1dd\	-cte	-cte	-pha-	-ge-	-ge-	-ge-	-ge-
=99-	=99-	=99-	=99-	=99-	=99-	=99-	=99-
1dd\	Mi-	Gab-	-el	-le	-li	-li	-li
=100-	=100-	=100-	=100-	=100-	=100-	=100-	=100-
1dd\	-chael	-riel	i-	cuſ-	qui	ſpe-	ami-
=101-	=101-	=101-	=101-	=101-	=101-	=101-	=101-
1dd\	ec-	ſpe-	-ter	-tos	ſem-	-cu-	-co-
=102-	=102-	=102-	=102-	=102-	=102-	=102-	=102-
1dd\	-cle-	-cia-	a-	mi	-per	-la	-rum
=103-	=103-	=103-	=103-	=103-	=103-	=103-	=103-
1dd\	-ſiae	-lis	-gen-	co-	deo	de-	de-
=104-	=104-	=104-	=104-	=104-	=104-	=104-	=104-
1dd\	dei	cuſ-	-tium	-mes	ſan-	-i	-i
=105-	=105-	=105-	=105-	=105-	=105-	=105-	=105-
1dd\	cuſ-	-tos	dux	tute-	-ctus	ſplen-	protec-
=106-	=106-	=106-	=106-	=106-	=106-	=106-	=106-
1dd\	-tos	mar-	fi-	-laris	ſan-	-`di-	-tores
=107-	=107-	=107-	=107-	=107-	=107-	=107-	=107-
2cc\	e`t	-ris	-`de-	in`	-ctus	-dis	et
!LO:SIC:o:v:t=tekst niewidoczny	!	!	!	!	!	!	!
2a\	p	`dei	-lis	di-	ſan`-	ſi-	tri-
=108-	=108-	=108-	=108-	=108-	=108-	=108-	=108-
1g\	tio-	noſ-	ſin	-vi-	-ctus,	-ma-	-bu-
=109-	=109-	=109-	=109-	=109-	=109-	=109-	=109-
2a,\	-ne	-tri	.	-due	ca-	.	-lo-
1b-\	O-	.	.	.	-ni-	.	-rum
=110-	=110-	=110-	=110-	=110-	=110-	=110-	=110-
1cc\	-ra	.	.	.	-tis	.	con-
=111-	=111-	=111-	=111-	=111-	=111-	=111-	=111-
2b-\	pro	.	.	.	O-	-bis	-ſo-
=112-	=112-	=112-	=112-	=112-	=112-	=112-	=112-
2.dd\	no-	.	.	.	-ra-	.	-la-
4cc\	.	.	.	.	-te	.	-to-
=113-	=113-	=113-	=113-	=113-	=113-	=113-	=113-
!LO:SIC:o:v=custos b	!	!	!	!	!	!	!
!LO:LB:g=original	!	!	!	!	!	!	!
1b-\	-bis	.	.	.	pro	.	-res
=114-	=114-	=114-	=114-	=114-	=114-	=114-	=114-
!LO:TX:a:t=Chorus	!	!	!	!	!	!	!
1b-\	O-	.	.	.	.	.	.
=115-	=115-	=115-	=115-	=115-	=115-	=115-	=115-
1cc\	-ra	.	.	.	.	.	.
=116-	=116-	=116-	=116-	=116-	=116-	=116-	=116-
1dd\	pro	.	.	.	.	.	.
=117-	=117-	=117-	=117-	=117-	=117-	=117-	=117-
2.dd\	no-	.	.	.	.	.	.
4cc\	.	.	.	.	.	.	.
=118-	=118-	=118-	=118-	=118-	=118-	=118-	=118-
!LO:SIC:o:v:t=kreska pseudotaktowa	!	!	!	!	!	!	!
!LO:TX:b:t=P:problem:# below	!	!	!	!	!	!	!
!LO:N:acc=#	!	!	!	!	!	!	!
1bn\	-bis	.	.	.	.	.	.
=119-	=119-	=119-	=119-	=119-	=119-	=119-	=119-
!LO:SIC:o:v:t=czasem kilka sylab na jeden dźwięk, tekst czasem niewidoczny	!	!	!	!	!	!	!
1dd\	SS An-	SS An-	SS An-	de-	SS An-	SS An-	.
=120-	=120-	=120-	=120-	=120-	=120-	=120-	=120-
1dd\	-geli	-geli	-geli	-la-	-geli	-geli	.
=121-	=121-	=121-	=121-	=121-	=121-	=121-	=121-
1dd\	ne-	ad	o-	-to-	ani-	pe-	.
=122-	=122-	=122-	=122-	=122-	=122-	=122-	=122-
1dd\	-ceſ-	cuſ-	-pe-	-res.	-ma-	-re-	.
=123-	=123-	=123-	=123-	=123-	=123-	=123-	=123-
1dd\	-si-	-to-	-rum	.	-rum	-gri-	.
=124-	=124-	=124-	=124-	=124-	=124-	=124-	=124-
1dd\	-ta-	-di-	noſ-	.	pur-	-na-	.
=125-	=125-	=125-	=125-	=125-	=125-	=125-	=125-
1dd\	-tum	-am	-tro-	.	-ga-	-ti-	.
=126-	=126-	=126-	=126-	=126-	=126-	=126-	=126-
1dd\	noſt`-	ho`-	-rum	.	-tarum	-o`-	.
=127-	=127-	=127-	=127-	=127-	=127-	=127-	=127-
2dd\	-ra-	-mi-	bo-	.	`ae-	-nis	.
2b-\	-rum	-num	-no-	.	-lum	noſ-	.
=128-	=128-	=128-	=128-	=128-	=128-	=128-	=128-
2cc\	pro-	deſ-	-rum	.	de-	-trae	.
2cc\	-vi-	-ti-	ad	.	-duc-	co-	.
=129-	=129-	=129-	=129-	=129-	=129-	=129-	=129-
1b-\	-so-	-na-	d`e-	.	-to-	-mi-	.
=130-	=130-	=130-	=130-	=130-	=130-	=130-	=130-
!LO:TX:b:t=Orate	!	!	!	!	!	!	!
!LO:SIC:o:v=custos b	!	!	!	!	!	!	!
!LO:LB:g=original	!	!	!	!	!	!	!
2a\	-res	-ti	-um	.	-res	-te	.
1b-\	O-	.	.	.	.	.	.
=131-	=131-	=131-	=131-	=131-	=131-	=131-	=131-
2cc\	-ra-	.	.	.	.	.	.
=132-	=132-	=132-	=132-	=132-	=132-	=132-	=132-
1.dd\	-te	.	.	.	.	.	.
=133-	=133-	=133-	=133-	=133-	=133-	=133-	=133-
2dd\	pro	.	.	.	.	.	.
=134-	=134-	=134-	=134-	=134-	=134-	=134-	=134-
1dd\	no-	.	.	.	.	.	.
=135-	=135-	=135-	=135-	=135-	=135-	=135-	=135-
1dd\	-bis	.	.	.	.	.	.
=136-	=136-	=136-	=136-	=136-	=136-	=136-	=136-
!LO:TX:a:t=Chorus	!	!	!	!	!	!	!
2b-\	O-	.	.	.	.	.	.
2b-\	-ra-	.	.	.	.	.	.
=137-	=137-	=137-	=137-	=137-	=137-	=137-	=137-
2cc\	-te	.	.	.	.	.	.
2cc\	pro	.	.	.	.	.	.
=138-	=138-	=138-	=138-	=138-	=138-	=138-	=138-
1dd\	no-	.	.	.	.	.	.
=139-	=139-	=139-	=139-	=139-	=139-	=139-	=139-
!LO:SIC:o:v:t=kreska pseudotaktowa	!	!	!	!	!	!	!
1b-\	-bis	.	.	.	.	.	.
=140-	=140-	=140-	=140-	=140-	=140-	=140-	=140-
1dd\	Om-	.	.	.	.	.	.
=141-	=141-	=141-	=141-	=141-	=141-	=141-	=141-
1dd\	-nes	.	.	.	.	.	.
=142-	=142-	=142-	=142-	=142-	=142-	=142-	=142-
1dd\	om-	.	.	.	.	.	.
=143-	=143-	=143-	=143-	=143-	=143-	=143-	=143-
1dd\	-ni-	.	.	.	.	.	.
=144-	=144-	=144-	=144-	=144-	=144-	=144-	=144-
1dd\	um	.	.	.	.	.	.
=145-	=145-	=145-	=145-	=145-	=145-	=145-	=145-
1dd\	ho-	.	.	.	.	.	.
=146-	=146-	=146-	=146-	=146-	=146-	=146-	=146-
1dd\	-ro-	.	.	.	.	.	.
=147-	=147-	=147-	=147-	=147-	=147-	=147-	=147-
1dd\	-rum	.	.	.	.	.	.
=148-	=148-	=148-	=148-	=148-	=148-	=148-	=148-
!LO:SIC:o:v:t=tekst "be" na dolnej linijce	!	!	!	!	!	!	!
!LO:SIC:o:v=custos dd	!	!	!	!	!	!	!
!LO:LB:g=original	!	!	!	!	!	!	!
1dd\	be-	.	.	.	.	.	.
=149-	=149-	=149-	=149-	=149-	=149-	=149-	=149-
2dd\	-at`i	.	.	.	.	.	.
2b-\	ſpi-	.	.	.	.	.	.
=150-	=150-	=150-	=150-	=150-	=150-	=150-	=150-
2cc\	-ri-	.	.	.	.	.	.
2cc\	-tus	.	.	.	.	.	.
=151-	=151-	=151-	=151-	=151-	=151-	=151-	=151-
1b-\	In-	.	.	.	.	.	.
=152-	=152-	=152-	=152-	=152-	=152-	=152-	=152-
!LO:SIC:o:v:t=sylaba niewidoczna	!	!	!	!	!	!	!
2a\	.	.	.	.	.	.	.
1b-\	-ce-	.	.	.	.	.	.
=153-	=153-	=153-	=153-	=153-	=153-	=153-	=153-
2cc\	-di-	.	.	.	.	.	.
=154-	=154-	=154-	=154-	=154-	=154-	=154-	=154-
1.cc\	-te	.	.	.	.	.	.
=155-	=155-	=155-	=155-	=155-	=155-	=155-	=155-
2dd\	pro	.	.	.	.	.	.
=156-	=156-	=156-	=156-	=156-	=156-	=156-	=156-
1dd\	no-	.	.	.	.	.	.
=157-	=157-	=157-	=157-	=157-	=157-	=157-	=157-
1dd\	-bis	.	.	.	.	.	.
=158-	=158-	=158-	=158-	=158-	=158-	=158-	=158-
1r	.	.	.	.	.	.	.
=159-	=159-	=159-	=159-	=159-	=159-	=159-	=159-
1r	.	.	.	.	.	.	.
=160-	=160-	=160-	=160-	=160-	=160-	=160-	=160-
1r	.	.	.	.	.	.	.
=161-	=161-	=161-	=161-	=161-	=161-	=161-	=161-
1r	.	.	.	.	.	.	.
=162-	=162-	=162-	=162-	=162-	=162-	=162-	=162-
2cc\	Par-	.	.	.	.	.	.
2cc\	-ce	.	.	.	.	.	.
=163-	=163-	=163-	=163-	=163-	=163-	=163-	=163-
2cc\	no-	.	.	.	.	.	.
2b-\	-bis	.	.	.	.	.	.
=164-	=164-	=164-	=164-	=164-	=164-	=164-	=164-
2.dd\	do-	.	.	.	.	.	.
4dd\	-mi-	.	.	.	.	.	.
=165-	=165-	=165-	=165-	=165-	=165-	=165-	=165-
!LO:TX:b:t=P:problem:# below	!	!	!	!	!	!	!
!LO:N:acc=#	!	!	!	!	!	!	!
1bn\	-ne	.	.	.	.	.	.
=166-	=166-	=166-	=166-	=166-	=166-	=166-	=166-
1r	.	.	.	.	.	.	.
=167-	=167-	=167-	=167-	=167-	=167-	=167-	=167-
1r	.	.	.	.	.	.	.
=168-	=168-	=168-	=168-	=168-	=168-	=168-	=168-
1r	.	.	.	.	.	.	.
=169-	=169-	=169-	=169-	=169-	=169-	=169-	=169-
1r	.	.	.	.	.	.	.
=170-	=170-	=170-	=170-	=170-	=170-	=170-	=170-
2dd\	Li-	.	.	.	.	.	.
2dd\	-be-	.	.	.	.	.	.
=171-	=171-	=171-	=171-	=171-	=171-	=171-	=171-
2cc\	-ra	.	.	.	.	.	.
!LO:SIC:o:v=custos dd	!	!	!	!	!	!	!
!LO:LB:g=original	!	!	!	!	!	!	!
2b-\	nos	.	.	.	.	.	.
=172-	=172-	=172-	=172-	=172-	=172-	=172-	=172-
2.dd\	do-	.	.	.	.	.	.
4dd\	-mi-	.	.	.	.	.	.
=173-	=173-	=173-	=173-	=173-	=173-	=173-	=173-
!LO:SIC:o:v:t=kreska pseudotaktowa	!	!	!	!	!	!	!
!LO:TX:b:t=P:problem:# below	!	!	!	!	!	!	!
!LO:N:acc=#	!	!	!	!	!	!	!
1bn\	-ne	.	.	.	.	.	.
=174-	=174-	=174-	=174-	=174-	=174-	=174-	=174-
1b-\	Ab	A	A ſubi-	A pe-	A	.	.
=175-	=175-	=175-	=175-	=175-	=175-	=175-	=175-
1b-\	om-	cunc-	-ta-	.	.	.	.
=176-	=176-	=176-	=176-	=176-	=176-	=176-	=176-
1b-\	-ni-	-tis	-nea	.	.	.	.
=177-	=177-	=177-	=177-	=177-	=177-	=177-	=177-
1b-\	-bus	pe-	et	.	.	.	.
=178-	=178-	=178-	=178-	=178-	=178-	=178-	=178-
1b-\	ini-	-ricu-	im-	.	.	.	.
=179-	=179-	=179-	=179-	=179-	=179-	=179-	=179-
1b-\	-mi`-	-lis`	-pro-	-ſte	mor-	.	.
=180-	=180-	=180-	=180-	=180-	=180-	=180-	=180-
2a\	-co-	per	-vi-	fa-	-te	.	.
2b-\	-rum	ſanc-	-ſa	-me	per-	.	.
=181-	=181-	=181-	=181-	=181-	=181-	=181-	=181-
2.cc\	in-	-to	for-	et	-pe-	.	.
4cc\	-ſi-	an-	-te	bel-	-tu-	.	.
=182-	=182-	=182-	=182-	=182-	=182-	=182-	=182-
1b-\	-diis	-ge-	.	-lo	-a	.	.
=183-	=183-	=183-	=183-	=183-	=183-	=183-	=183-
2dd\	Li-	-los	.	.	.	.	.
2b-\	-be-	tu-	.	.	.	.	.
=184-	=184-	=184-	=184-	=184-	=184-	=184-	=184-
2cc\	-ra	-os	.	.	.	.	.
2dd\	nos	.	.	.	.	.	.
=185-	=185-	=185-	=185-	=185-	=185-	=185-	=185-
2.dd\	do-	.	.	.	.	.	.
4dd\	-mi-	.	.	.	.	.	.
=186-	=186-	=186-	=186-	=186-	=186-	=186-	=186-
!LO:SIC:o:v=custos dd	!	!	!	!	!	!	!
!LO:LB:g=original	!	!	!	!	!	!	!
1bn\	-ne	.	.	.	.	.	.
=187-	=187-	=187-	=187-	=187-	=187-	=187-	=187-
!LO:SIC:o:v:t=czasem kilka sylab na jeden dźwięk	!	!	!	!	!	!	!
1dd\	Per	I	Per	.	.	.	.
=188-	=188-	=188-	=188-	=188-	=188-	=188-	=188-
1dd\	ſanctos	.	inter-	.	.	.	.
=189-	=189-	=189-	=189-	=189-	=189-	=189-	=189-
1dd\	an-	.	-ceſ-	.	.	.	.
=190-	=190-	=190-	=190-	=190-	=190-	=190-	=190-
1dd\	-gelos	.	-si-	.	.	.	.
=191-	=191-	=191-	=191-	=191-	=191-	=191-	=191-
1dd\	tuos	.	-o-	.	.	.	.
=192-	=192-	=192-	=192-	=192-	=192-	=192-	=192-
1dd\	tri	.	-nem	.	.	.	.
=193-	=193-	=193-	=193-	=193-	=193-	=193-	=193-
1dd\	bue vi-	mi-	om-	.	.	.	.
=194-	=194-	=194-	=194-	=194-	=194-	=194-	=194-
1dd\	-vis	-ſe-	-nium	.	.	.	.
=195-	=195-	=195-	=195-	=195-	=195-	=195-	=195-
1dd\	grati-	-ri`-	ſanc`-	.	.	.	.
=196-	=196-	=196-	=196-	=196-	=196-	=196-	=196-
2dd\	-am	-cor-	-to-	.	.	.	.
2b-\	de-	-di-	-rum	.	.	.	.
=197-	=197-	=197-	=197-	=197-	=197-	=197-	=197-
2cc\	-fun-	-am	an-	.	.	.	.
2cc\	-ctis	oſ-	-ge-	.	.	.	.
=198-	=198-	=198-	=198-	=198-	=198-	=198-	=198-
1b-\	aexili-	-ten-	-lo-	.	.	.	.
=199-	=199-	=199-	=199-	=199-	=199-	=199-	=199-
!LO:SIC:o:v=custos b	!	!	!	!	!	!	!
2a\	-um et	-de	-rum	.	.	.	.
!LO:LB:g=original	!	!	!	!	!	!	!
1b-\	Li-	.	.	.	.	.	.
=200-	=200-	=200-	=200-	=200-	=200-	=200-	=200-
2cc\	-be-	.	.	.	.	.	.
=201-	=201-	=201-	=201-	=201-	=201-	=201-	=201-
1.cc\	-ra	.	.	.	.	.	.
=202-	=202-	=202-	=202-	=202-	=202-	=202-	=202-
2b-\	nos	.	.	.	.	.	.
=203-	=203-	=203-	=203-	=203-	=203-	=203-	=203-
2.dd\	do-	.	.	.	.	.	.
4dd\	-mi-	.	.	.	.	.	.
=204-	=204-	=204-	=204-	=204-	=204-	=204-	=204-
!LO:N:acc=#	!	!	!	!	!	!	!
!LO:TX:b:t=P:problem:# below	!	!	!	!	!	!	!
!LO:SIC:o:v:t=kreska pseudotaktowa	!	!	!	!	!	!	!
1bn\	-ne,	.	.	.	.	.	.
=205-	=205-	=205-	=205-	=205-	=205-	=205-	=205-
1.dd\	Chriſ-	.	.	.	.	.	.
=206-	=206-	=206-	=206-	=206-	=206-	=206-	=206-
2dd\	-te	.	.	.	.	.	.
=207-	=207-	=207-	=207-	=207-	=207-	=207-	=207-
2dd\	de-	.	.	.	.	.	.
2dd\	-cus	.	.	.	.	.	.
=208-	=208-	=208-	=208-	=208-	=208-	=208-	=208-
2cc\	an-	.	.	.	.	.	.
2a\	-ge-	.	.	.	.	.	.
=209-	=209-	=209-	=209-	=209-	=209-	=209-	=209-
1g\	-lo-	.	.	.	.	.	.
=210-	=210-	=210-	=210-	=210-	=210-	=210-	=210-
1a\	-rum	.	.	.	.	.	.
=211-	=211-	=211-	=211-	=211-	=211-	=211-	=211-
2b-\	Par-	.	.	.	.	.	.
2b-\	-ce	.	.	.	.	.	.
=212-	=212-	=212-	=212-	=212-	=212-	=212-	=212-
2cc\	no-	.	.	.	.	.	.
2b-\	-bis	.	.	.	.	.	.
=213-	=213-	=213-	=213-	=213-	=213-	=213-	=213-
2.dd\	do-	.	.	.	.	.	.
4dd\	-mi-	.	.	.	.	.	.
=214-	=214-	=214-	=214-	=214-	=214-	=214-	=214-
!LO:N:acc=#	!	!	!	!	!	!	!
!LO:TX:b:t=P:problem:# below	!	!	!	!	!	!	!
!LO:SIC:o:v=custos dd	!	!	!	!	!	!	!
!LO:LB:g=original	!	!	!	!	!	!	!
1bn\	-ne	.	.	.	.	.	.
=215-	=215-	=215-	=215-	=215-	=215-	=215-	=215-
00r	.	.	.	.	.	.	.
=216-	=216-	=216-	=216-	=216-	=216-	=216-	=216-
=217-	=217-	=217-	=217-	=217-	=217-	=217-	=217-
=218-	=218-	=218-	=218-	=218-	=218-	=218-	=218-
=219-	=219-	=219-	=219-	=219-	=219-	=219-	=219-
00r	.	.	.	.	.	.	.
=220-	=220-	=220-	=220-	=220-	=220-	=220-	=220-
=221-	=221-	=221-	=221-	=221-	=221-	=221-	=221-
1r	.	.	.	.	.	.	.
=222-	=222-	=222-	=222-	=222-	=222-	=222-	=222-
2dd\	E-	.	.	.	.	.	.
2b-\	-xau-	.	.	.	.	.	.
=223-	=223-	=223-	=223-	=223-	=223-	=223-	=223-
2cc\	-di	.	.	.	.	.	.
2dd\	nos	.	.	.	.	.	.
=224-	=224-	=224-	=224-	=224-	=224-	=224-	=224-
2.dd\	do-	.	.	.	.	.	.
4dd\	-mi-	.	.	.	.	.	.
=225-	=225-	=225-	=225-	=225-	=225-	=225-	=225-
!LO:SIC:o:v:t=kreska pseudotaktowa	!	!	!	!	!	!	!
!LO:N:acc=#	!	!	!	!	!	!	!
!LO:TX:b:t=P:problem:# below	!	!	!	!	!	!	!
1bn\	-ne	.	.	.	.	.	.
=226-	=226-	=226-	=226-	=226-	=226-	=226-	=226-
1dd\	Chriſ-	.	.	.	.	.	.
=227-	=227-	=227-	=227-	=227-	=227-	=227-	=227-
1dd\	-te	.	.	.	.	.	.
=228-	=228-	=228-	=228-	=228-	=228-	=228-	=228-
1dd\	bea-	.	.	.	.	.	.
=229-	=229-	=229-	=229-	=229-	=229-	=229-	=229-
1dd\	-titudo	.	.	.	.	.	.
=230-	=230-	=230-	=230-	=230-	=230-	=230-	=230-
1dd\	omni-	.	.	.	.	.	.
=231-	=231-	=231-	=231-	=231-	=231-	=231-	=231-
1dd\	-um	.	.	.	.	.	.
=232-	=232-	=232-	=232-	=232-	=232-	=232-	=232-
1dd\	spi`-	.	.	.	.	.	.
=233-	=233-	=233-	=233-	=233-	=233-	=233-	=233-
2dd\	-ri-	.	.	.	.	.	.
2b-\	-tu-	.	.	.	.	.	.
=234-	=234-	=234-	=234-	=234-	=234-	=234-	=234-
2cc\	-um	.	.	.	.	.	.
!LO:SIC:o:v=custos b	!	!	!	!	!	!	!
!LO:LB:g=original	!	!	!	!	!	!	!
2cc\	cae-	.	.	.	.	.	.
=235-	=235-	=235-	=235-	=235-	=235-	=235-	=235-
2.b-\	-leſ-	.	.	.	.	.	.
4b-\	-ti-	.	.	.	.	.	.
=236-	=236-	=236-	=236-	=236-	=236-	=236-	=236-
2a,\	-um	.	.	.	.	.	.
2b-\	Mi-	.	.	.	.	.	.
=237-	=237-	=237-	=237-	=237-	=237-	=237-	=237-
2b-\	-ſe-	.	.	.	.	.	.
2cc\	-re-	.	.	.	.	.	.
=238-	=238-	=238-	=238-	=238-	=238-	=238-	=238-
2cc\	-re	.	.	.	.	.	.
4cc\	mi-	.	.	.	.	.	.
4cc\	-ſe-	.	.	.	.	.	.
=239-	=239-	=239-	=239-	=239-	=239-	=239-	=239-
2b-\	-re-	.	.	.	.	.	.
2dd\	-re	.	.	.	.	.	.
=240-	=240-	=240-	=240-	=240-	=240-	=240-	=240-
2.dd\	no-	.	.	.	.	.	.
4cc\	.	.	.	.	.	.	.
=241-	=241-	=241-	=241-	=241-	=241-	=241-	=241-
!LO:SIC:o:v:t=kreska pseudotaktowa	!	!	!	!	!	!	!
!LO:N:acc=#	!	!	!	!	!	!	!
!LO:TX:b:t=P:problem:# below	!	!	!	!	!	!	!
1bn\	-bis	.	.	.	.	.	.
=242-	=242-	=242-	=242-	=242-	=242-	=242-	=242-
2.b-\	Ki-	.	.	.	.	.	.
4b-\	-ri-	.	.	.	.	.	.
=243-	=243-	=243-	=243-	=243-	=243-	=243-	=243-
!LO:SIC:o:v:t=dźwięk niewidoczny	!	!	!	!	!	!	!
1b-\	-e	.	.	.	.	.	.
=244-	=244-	=244-	=244-	=244-	=244-	=244-	=244-
4b-\	e-	.	.	.	.	.	.
4cc\	.	.	.	.	.	.	.
2dd\	.	.	.	.	.	.	.
=245-	=245-	=245-	=245-	=245-	=245-	=245-	=245-
1dd\	leÿ-	.	.	.	.	.	.
=246-	=246-	=246-	=246-	=246-	=246-	=246-	=246-
2b-,\	-ſon	.	.	.	.	.	.
!LO:LB:g=original	!	!	!	!	!	!	!
2dd\	Chriſ-	.	.	.	.	.	.
=247-	=247-	=247-	=247-	=247-	=247-	=247-	=247-
!LO:SIC:o:v=custos dd	!	!	!	!	!	!	!
2dd\	-te	.	.	.	.	.	.
2dd\	e-	.	.	.	.	.	.
=248-	=248-	=248-	=248-	=248-	=248-	=248-	=248-
1dd\	-ley-	.	.	.	.	.	.
=249-	=249-	=249-	=249-	=249-	=249-	=249-	=249-
1dd\	-ſon	.	.	.	.	.	.
=250-	=250-	=250-	=250-	=250-	=250-	=250-	=250-
2r	.	.	.	.	.	.	.
2dd\	Chriſ-	.	.	.	.	.	.
=251-	=251-	=251-	=251-	=251-	=251-	=251-	=251-
2dd\	-te	.	.	.	.	.	.
2a\	e-	.	.	.	.	.	.
=252-	=252-	=252-	=252-	=252-	=252-	=252-	=252-
2.b-\	-leÿ-	.	.	.	.	.	.
4cc\	.	.	.	.	.	.	.
=253-	=253-	=253-	=253-	=253-	=253-	=253-	=253-
0dd\	-son	.	.	.	.	.	.
=254-	=254-	=254-	=254-	=254-	=254-	=254-	=254-
=255-	=255-	=255-	=255-	=255-	=255-	=255-	=255-
2dd\	Ki-	.	.	.	.	.	.
2b-\	-ri-	.	.	.	.	.	.
=256-	=256-	=256-	=256-	=256-	=256-	=256-	=256-
2.cc\	-e	.	.	.	.	.	.
8b-\L	.	.	.	.	.	.	.
8a\J	.	.	.	.	.	.	.
=257-	=257-	=257-	=257-	=257-	=257-	=257-	=257-
2g/	.	.	.	.	.	.	.
2cc\	.	.	.	.	.	.	.
=258-	=258-	=258-	=258-	=258-	=258-	=258-	=258-
2.dd\	e-	.	.	.	.	.	.
8cc\L	.	.	.	.	.	.	.
8b-\J	.	.	.	.	.	.	.
=259-	=259-	=259-	=259-	=259-	=259-	=259-	=259-
1a\	-leÿ-	.	.	.	.	.	.
=260-	=260-	=260-	=260-	=260-	=260-	=260-	=260-
!LO:N:acc=#	!	!	!	!	!	!	!
!LO:TX:b:t=P:problem:# below	!	!	!	!	!	!	!
2bn\	-son	.	.	.	.	.	.
!LO:SIC:o:v=custos cc	!	!	!	!	!	!	!
!LO:N:acc=#	!	!	!	!	!	!	!
!LO:TX:b:t=P:problem:# below	!	!	!	!	!	!	!
!LO:LB:g=original	!	!	!	!	!	!	!
2bn\	Ki-	.	.	.	.	.	.
=261-	=261-	=261-	=261-	=261-	=261-	=261-	=261-
2cc\	-ri-	.	.	.	.	.	.
!LO:N:acc=#	!	!	!	!	!	!	!
!LO:TX:b:t=P:problem:# below	!	!	!	!	!	!	!
2bn\	-e	.	.	.	.	.	.
=262-	=262-	=262-	=262-	=262-	=262-	=262-	=262-
1.cc\	e-	.	.	.	.	.	.
=263-	=263-	=263-	=263-	=263-	=263-	=263-	=263-
2cc\	-ley-	.	.	.	.	.	.
=264-	=264-	=264-	=264-	=264-	=264-	=264-	=264-
!LO:N:acc=#	!	!	!	!	!	!	!
!LO:TX:b:t=P:problem:# below	!	!	!	!	!	!	!
0bn\	-ſon;	.	.	.	.	.	.
==-	==-	==-	==-	==-	==-	==-	==-
*-	*-	*-	*-	*-	*-	*-	*-
!!!system-decoration: [(s1)]
!!!ENC: Filip Voros
!!!END: 2021-10-30
!!!ENC: Leszek Kubiak
!!!END: 2021-11-08
